web/public/images/typescript.svg

<svg fill="none" height="42" viewBox="0 0 43 42" width="43" xmlns="http://www.w3.org/2000/svg" xmlns:xlink="http://www.w3.org/1999/xlink"><clipPath id="a"><path d="m.718872 0h42v42h-42z"/></clipPath><g clip-path="url(#a)"><path d="m32.8751 0h-22.3125c-5.43653 0-9.843728 4.4072-9.843728 9.84375v22.31245c0 5.4366 4.407198 9.8438 9.843728 9.8438h22.3125c5.4366 0 9.8438-4.4072 9.8438-9.8438v-22.31245c0-5.43655-4.4072-9.84375-9.8438-9.84375z" fill="#a86338"/><path d="m10.0066 21.1394-.01331 1.72h5.46651v15.5333h3.867v-15.5333h5.4666v-1.6867c0-.9334-.0199-1.7133-.0466-1.7333-.02-.0266-3.3467-.0401-7.3801-.0333l-7.3399.02zm24.6021-1.7622c1.0666.2668 1.88.7401 2.6267 1.5133.3867.4134.9599 1.1668 1.0067 1.3468.0132.0533-1.8134 1.28-2.92 1.9666-.0401.0268-.2002-.1467-.3802-.4133-.5399-.7866-1.1066-1.1267-1.9733-1.1866-1.2733-.0868-2.0933.5799-2.0865 1.6933 0 .3266.0465.5199.1799.7866.2799.58.8.9267 2.4334 1.6333 3.0066 1.2935 4.2932 2.1467 5.0933 3.36.8933 1.3533 1.0933 3.5134.4866 5.1201-.6666 1.7466-2.32 2.9332-4.6467 3.3266-.7199.1267-2.4267.1067-3.1999-.0333-1.6867-.3-3.2866-1.1333-4.2733-2.2266-.3867-.4267-1.1401-1.5401-1.0933-1.6201.0198-.0266.1932-.1333.3865-.2466.1867-.1067.8935-.5134 1.5601-.9001l1.2066-.7.2534.3734c.3534.5399 1.1266 1.28 1.5933 1.5266 1.3399.7068 3.1801.6067 4.0867-.2066.3867-.3534.5466-.72.5466-1.26 0-.4867-.06-.7-.3133-1.0667-.3267-.4666-.9933-.86-2.8867-1.68-2.1666-.9334-3.1-1.5133-3.9533-2.4334-.4933-.5332-.9601-1.3866-1.1533-2.1-.16-.5932-.2-2.08-.0734-2.6799.4466-2.0933 2.0267-3.5533 4.3067-3.9868.7401-.1399 2.4599-.0866 3.1867.0934z" fill="#181310"/></g></svg>

<svg width="43" height="42" viewBox="0 0 43 42" fill="none" xmlns="http://www.w3.org/2000/svg">
<g clip-path="url(#clip0_26_101)">
<path d="M32.8751 0H10.5626C5.12607 0 0.718872 4.4072 0.718872 9.84375V32.1562C0.718872 37.5928 5.12607 42 10.5626 42H32.8751C38.3117 42 42.7189 37.5928 42.7189 32.1562V9.84375C42.7189 4.4072 38.3117 0 32.8751 0Z" fill="#A86338"/>
<path d="M10.0066 21.1394L9.99329 22.8594H15.4598V38.3927H19.3268V22.8594H24.7934V21.1727C24.7934 20.2393 24.7735 19.4594 24.7468 19.4394C24.7268 19.4128 21.4001 19.3993 17.3667 19.4061L10.0268 19.4261L10.0066 21.1394ZM34.6087 19.3772C35.6753 19.644 36.4887 20.1173 37.2354 20.8905C37.6221 21.3039 38.1953 22.0573 38.2421 22.2373C38.2553 22.2906 36.4287 23.5173 35.3221 24.2039C35.282 24.2307 35.1219 24.0572 34.9419 23.7906C34.402 23.004 33.8353 22.6639 32.9686 22.604C31.6953 22.5172 30.8753 23.1839 30.8821 24.2973C30.8821 24.6239 30.9286 24.8172 31.062 25.0839C31.3419 25.6639 31.862 26.0106 33.4954 26.7172C36.502 28.0107 37.7886 28.8639 38.5887 30.0772C39.482 31.4305 39.682 33.5906 39.0753 35.1973C38.4087 36.9439 36.7553 38.1305 34.4286 38.5239C33.7087 38.6506 32.0019 38.6306 31.2287 38.4906C29.542 38.1906 27.9421 37.3573 26.9554 36.264C26.5687 35.8373 25.8153 34.7239 25.8621 34.6439C25.8819 34.6173 26.0553 34.5106 26.2486 34.3973C26.4353 34.2906 27.1421 33.8839 27.8087 33.4972L29.0153 32.7972L29.2687 33.1706C29.6221 33.7105 30.3953 34.4506 30.862 34.6972C32.2019 35.404 34.0421 35.3039 34.9487 34.4906C35.3354 34.1372 35.4953 33.7706 35.4953 33.2306C35.4953 32.7439 35.4353 32.5306 35.182 32.1639C34.8553 31.6973 34.1887 31.3039 32.2953 30.4839C30.1287 29.5505 29.1953 28.9706 28.342 28.0505C27.8487 27.5173 27.3819 26.6639 27.1887 25.9505C27.0287 25.3573 26.9887 23.8705 27.1153 23.2706C27.5619 21.1773 29.142 19.7173 31.422 19.2838C32.1621 19.1439 33.8819 19.1972 34.6087 19.3772Z" fill="#181310"/>
</g>
<defs>
<clipPath id="clip0_26_101">
<rect width="42" height="42" fill="white" transform="translate(0.718872)"/>
</clipPath>
</defs>
</svg>
